X: 387
T:En non saichant
N: Derived from Jos2906-En_non_saichant.krn
C: Josquin des Prez
%%abc-version 2.0
%%abcx-abcm2ps-target-version 5.9.1 (29 Sep 2008)
%%abc-creator hum2abc beta
%%abcx-conversion-date 2019/02/12 16:15:55
%%abc-edited-by Jesse Rodin
%%abc-edited-by Will Watson 15/09/2011
%%abcx-initial-encoding-date 2011/09/15/
%%humdrum-veritas 1471852641
%%humdrum-veritas-data 3638697187
%%linebreak <none>
%%barnumbers 0
L: 1/4
M: 2/1
Q: 1/2=120
V: 1 clef=treble
V: 2 clef=treble-8
V: 3 clef=treble-8
V: 4 clef=bass
V: 5 clef=bass
K: C
[V:1] E4A4 | 
[V:2] z8 | 
[V:3] z8 | 
[V:4] E4C4 | 
[V:5] E,4F,4 | 
[V:1] A4G4 | 
[V:2] z4e4- | 
[V:3] z8 | 
[V:4] D4E4 | 
[V:5] F,4E,4 | 
[V:1] G2c4B2 | 
[V:2] e2c2c4 | 
[V:3] E4F4 | 
[V:4] z4A,4 | 
[V:5] z8 | 
[V:1] A4G4 | 
[V:2] d4e4- | 
[V:3] F4E4 | 
[V:4] A,4B,3G, | 
[V:5] z8 | 
[V:1] z4C4- | 
[V:2] e4A4 | 
[V:3] B2c3BAG | 
[V:4] G,4A,4- | 
[V:5] E,4F,4 | 
[V:1] C2D2E3F | 
[V:2] a4g3f | 
[V:3] A4B4 | 
[V:4] A,2D,2G,3A, | 
[V:5] F,4E,4- | 
[V:1] G2A2E2c2- | 
[V:2] edc3BA2- | 
[V:3] E4A4 | 
[V:4] B,2A,2C3B, | 
[V:5] E,2A,,2A,,4 | 
[V:1] c2B2A3G | 
[V:2] A2d3cBA | 
[V:3] z2D4E2 | 
[V:4] A,G,A,2z4 | 
[V:5] F,6E,2 | 
[V:1] F4E4 | 
[V:2] B4c3A | 
[V:3] F4G3E | 
[V:4] z8 | 
[V:5] D,4C,4 | 
[V:1] z8 | 
[V:2] B2c3AB2- | 
[V:3] G2A4G2 | 
[V:4] z2C2D2E2 | 
[V:5] z2F,4E,2 | 
[V:1] z8 | 
[V:2] BAA4^G2 | 
[V:3] F2E2D4 | 
[V:4] A,4D4 | 
[V:5] D,2C,2B,,4 | 
[V:1] z4E4 | 
[V:2] A8 | 
[V:3] E4c4 | 
[V:4] C6B,A, | 
[V:5] A,,8 | 
[V:1] G3AB2c2- | 
[V:2] z8 | 
[V:3] B4B2e2- | 
[V:4] G,2E,2E4 | 
[V:5] E,6C,2 | 
[V:1] cBAGFGAF | 
[V:2] z8 | 
[V:3] edcBA4 | 
[V:4] z2E2D3C | 
[V:5] C,4D,4 | 
[V:1] G6FE | 
[V:2] e4g4- | 
[V:3] G2E2e4 | 
[V:4] B,A,B,2G,4- | 
[V:5] E,6C,2 | 
[V:1] E2c2B2A2- | 
[V:2] g2g2f4 | 
[V:3] z2e2d3c | 
[V:4] G,2E,2F,4 | 
[V:5] C,4D,4 | 
[V:1] A2^G^FG4 | 
[V:2] e6e2 | 
[V:3] B3AB4 | 
[V:4] G,3E,E,4 | 
[V:5] E,8 | 
[V:1] A8 | 
[V:2] c3de2f2- | 
[V:3] A2c3BAG | 
[V:4] A,6D,2 | 
[V:5] A,,2A,3G,F,E, | 
[V:1] z8 | 
[V:2] fed4^c2 | 
[V:3] A2B2G4 | 
[V:4] D,2G,4C,2 | 
[V:5] F,2G,2E,4 | 
[V:1] z8 | 
[V:2] d8 | 
[V:3] A8 | 
[V:4] F,8 | 
[V:5] D,8 | 
[V:1] z2F2F4 | 
[V:2] z8 | 
[V:3] z2A2d4 | 
[V:4] z2F,2F,3G, | 
[V:5] z2D,2D,4 | 
[V:1] E4z2F2 | 
[V:2] z4z2A2 | 
[V:3] c4z2F2 | 
[V:4] A,8 | 
[V:5] A,,4z2D,2 | 
[V:1] F4E4 | 
[V:2] d4c4 | 
[V:3] F3GA4 | 
[V:4] z8 | 
[V:5] D,4A,,4 | 
[V:1] z4z2A2 | 
[V:2] f6f2 | 
[V:3] z2A2d4 | 
[V:4] z2F,2F,3G, | 
[V:5] z2D,2D,4 | 
[V:1] c4B2A2 | 
[V:2] e2dcdef2- | 
[V:3] c2A2B2c2- | 
[V:4] A,4z4 | 
[V:5] A,,2A,2G,2A,2- | 
[V:1] c2B2A4 | 
[V:2] fee4d2 | 
[V:3] cBG2A4 | 
[V:4] z8 | 
[V:5] A,G,E,2F,4 | 
[V:1] G2C2G2C2- | 
[V:2] e8 | 
[V:3] B2c2B2A2 | 
[V:4] z2A,,2E,2A,,2 | 
[V:5] E,2A,2G,2A,2- | 
[V:1] CDE4D2 | 
[V:2] z4z2a2- | 
[V:3] c4A4 | 
[V:4] A,2G,2A,2D,2 | 
[V:5] A,G,E,2F,4 | 
[V:1] E4z2E2 | 
[V:2] a2g2e2g2 | 
[V:3] B4e4 | 
[V:4] G,2C,2C3B, | 
[V:5] E,4C,4 | 
[V:1] A4G4 | 
[V:2] f4e2g2- | 
[V:3] d4B2e2- | 
[V:4] A,G,F,2G,2E,2 | 
[V:5] D,4E,4 | 
[V:1] E4F4 | 
[V:2] gfe3dd2 | 
[V:3] edc2BAA2- | 
[V:4] G,2A,2F,4 | 
[V:5] C,4D,4 | 
[V:1] G3EE4 | 
[V:2] c2B3Ac2 | 
[V:3] A2G2A3E | 
[V:4] E,2E2E2E2 | 
[V:5] E,4A,,4 | 
[V:1] z4B4 | 
[V:2] B2A2A2^G2 | 
[V:3] G2A2E4 | 
[V:4] D2C2B,4 | 
[V:5] z8 | 
[V:1] c4c4 | 
[V:2] A8 | 
[V:3] e8 | 
[V:4] A,2C4B,A, | 
[V:5] z4A,,4 | 
[V:1] B4c4- | 
[V:2] z4z2A2- | 
[V:3] e8 | 
[V:4] G,2E,2A,4 | 
[V:5] E,4A,,4 | 
[V:1] c2B2G2A2- | 
[V:2] A2G2c4 | 
[V:3] e8 | 
[V:4] E,4z2E,2 | 
[V:5] z2E,4C,2 | 
[V:1] A2G2A4 | 
[V:2] B4A4 | 
[V:3] d2B2c2A2- | 
[V:4] F,2G,2E,2F,2 | 
[V:5] D,2E,2C,2D,2 | 
[V:1] B4c4 | 
[V:2] d4c3d | 
[V:3] A2^G2A4- | 
[V:4] D,4E,2C2- | 
[V:5] B,,4A,,4 | 
[V:1] z8 | 
[V:2] e2f2edf2- | 
[V:3] A4z2A2 | 
[V:4] CB,A,3G,F,E, | 
[V:5] z2D,2C,2D,2- | 
[V:1] z8 | 
[V:2] f2edf2e2 | 
[V:3] F2G2A3G | 
[V:4] D,2D2C3B,/A,/ | 
[V:5] D,2C,B,,A,,2C,2- | 
[V:1] z8 | 
[V:2] g2f4ed | 
[V:3] E2F2D4 | 
[V:4] G,E,A,4^G,2 | 
[V:5] C,2D,2B,,4 | 
[V:1] z8 | 
[V:2] c6A2 | 
[V:3] E4z4 | 
[V:4] A,8 | 
[V:5] A,,4z4 | 
[V:1] C4C4 | 
[V:2] e4z2e2 | 
[V:3] A4A4 | 
[V:4] z8 | 
[V:5] A,,4A,3G, | 
[V:1] D4E4 | 
[V:2] a4g3f | 
[V:3] A4B3A | 
[V:4] z4z2E,2 | 
[V:5] F,4E,4 | 
[V:1] z4E4 | 
[V:2] d2e3dB2 | 
[V:3] B2c3BG2 | 
[V:4] G,2C,3D,E,2 | 
[V:5] z8 | 
[V:1] E2E2E4 | 
[V:2] c3BG2A2- | 
[V:3] A2c2B2A2 | 
[V:4] A,,2A,2E,2A,2 | 
[V:5] z2A,,2E,2A,,2 | 
[V:1] z4z2E2 | 
[V:2] ABc2A2B2- | 
[V:3] c2F4G2 | 
[V:4] A,,2A,2D,2G,2 | 
[V:5] A,3G,F,2E,2 | 
[V:1] F2E2D4 | 
[V:2] B2A4^G2 | 
[V:3] A4D4 | 
[V:4] F,2C2D2B,2 | 
[V:5] D,2C,2B,,4 | 
[V:1] C4z2C2 | 
[V:2] A8- | 
[V:3] E4z2e2 | 
[V:4] C2A,2CB,A,G, | 
[V:5] A,,4z2A,,2 | 
[V:1] D2E2F4 | 
[V:2] A8- | 
[V:3] f2e2d4 | 
[V:4] F,2CB,A,G,A,2- | 
[V:5] D,2C,2D,4 | 
[V:1] E8- | 
[V:2] A8- | 
[V:3] c8- | 
[V:4] A,G,E,2E,4 | 
[V:5] A,,8- | 
[V:1] E8- | 
[V:2] A8- | 
[V:3] c8- | 
[V:4] E,8- | 
[V:5] A,,8- | 
[V:1] E8 |]  
[V:2] A8 |]  
[V:3] c8 |]  
[V:4] E,8 |]  
[V:5] A,,8 |]  



